X:250
T:West Port, The
C:Billy Anderson
R:Jig
M:6/8
K:Bb
F|\
"Bb"DEF A2F|DEF B3|DEF "Bdim"G2F|"Cm"A2G C3|
"Cm"C2D E2F|EDC D2E|"F7"F2G A2B| AGF GFE|
"Bb"DEF G2F|DEF B3| DEF "Bdim"G2F|"Cm"A2G C3|
"Cm"C2D E2F|EDC "C7"DE=E|"F"F=EF "F7"ABc|"Bb"BFG "F7"ABc|
"Bb"d2c BFD|"A7"A2G "Bb"F3|B,DF "Gm"GAB|"Cm"A2G "F"C3|
"F7"A2A ABc|"Cm"G2G GAB|"F"ABc FGA|CFG "F7"ABc|
"Bb"d2c BFD|"A7"A2G "Bb"F3|B,DF "G"GAB|"Cm"A2G "F"C3|
A2A ABc|"Cm"G2G GAB|"F"AGF "F7"edc|"Bb"B3-B2|]
